icons/trash.svg

<svg xmlns="http://www.w3.org/2000/svg" width="96" height="96"><path d="M20.6 36l6.8 47.5c0 .3.3.5.6.5h40c.3 0 .6-.2.6-.5L75.4 36H20.6zm-8 .4l6.9 48.2c.6 4.2 4.2 7.4 8.5 7.4h40c4.3 0 7.9-3.2 8.5-7.4l6.9-48.2.1-.7v-.3c0-2-.8-3.9-2.3-5.3C79.8 28.8 78 28 76 28H20c-2 0-3.8.8-5.2 2.1-1.5 1.4-2.3 3.3-2.3 5.3v.3l.1.7zM36 48c0-1.1.4-2.1 1.2-2.8.7-.8 1.7-1.2 2.8-1.2 1.1 0 2.1.4 2.8 1.2.8.7 1.2 1.7 1.2 2.8v24c0 1.1-.4 2.1-1.2 2.8-.7.8-1.7 1.2-2.8 1.2-1.1 0-2.1-.4-2.8-1.2-.8-.7-1.2-1.7-1.2-2.8V48zm16 0c0-1.1.4-2.1 1.2-2.8.7-.8 1.7-1.2 2.8-1.2 1.1 0 2.1.4 2.8 1.2.8.7 1.2 1.7 1.2 2.8v24c0 1.1-.4 2.1-1.2 2.8-.7.8-1.7 1.2-2.8 1.2-1.1 0-2.1-.4-2.8-1.2-.8-.7-1.2-1.7-1.2-2.8V48zM36 16H16c-1.1 0-2.1.4-2.8 1.2-.8.7-1.2 1.7-1.2 2.8 0 1.1.4 2.1 1.2 2.8.7.8 1.7 1.2 2.8 1.2h64c1.1 0 2.1-.4 2.8-1.2.8-.7 1.2-1.7 1.2-2.8 0-1.1-.4-2.1-1.2-2.8-.7-.8-1.7-1.2-2.8-1.2H60v-4c0-2.1-.8-4.2-2.3-5.7C56.2 4.8 54.1 4 52 4h-8c-2.1 0-4.2.8-5.7 2.3C36.8 7.8 36 9.9 36 12v4zm8 0h8v-4h-8v4z" fill-rule="evenodd" fill="#454545"/></svg>

<?xml version="1.0" standalone="no"?><!-- Generator: Gravit.io --><svg xmlns="http://www.w3.org/2000/svg" xmlns:xlink="http://www.w3.org/1999/xlink" width="96" height="96"><path d=" M 20.6 36 L 20.6 36 L 27.4 83.5 C 27.4 83.8 27.7 84 28 84 L 68 84 C 68.3 84 68.6 83.8 68.6 83.5 L 75.4 36 L 20.6 36 Z  M 75.4 36 M 12.6 36.4 L 19.5 84.6 C 20.1 88.8 23.7 92 28 92 L 68 92 C 72.3 92 75.9 88.8 76.5 84.6 L 83.4 36.4 L 83.5 35.7 C 83.5 35.6 83.5 35.5 83.5 35.4 C 83.5 33.4 82.7 31.5 81.2 30.1 C 79.8 28.8 78 28 76 28 L 20 28 C 18 28 16.2 28.8 14.8 30.1 C 13.3 31.5 12.5 33.4 12.5 35.4 C 12.5 35.5 12.5 35.6 12.5 35.7 L 12.6 36.4 Z  M 36 48 C 36 46.9 36.4 45.9 37.2 45.2 C 37.9 44.4 38.9 44 40 44 C 41.1 44 42.1 44.4 42.8 45.2 C 43.6 45.9 44 46.9 44 48 L 44 72 C 44 73.1 43.6 74.1 42.8 74.8 C 42.1 75.6 41.1 76 40 76 C 38.9 76 37.9 75.6 37.2 74.8 C 36.4 74.1 36 73.1 36 72 L 36 48 Z  M 52 48 C 52 46.9 52.4 45.9 53.2 45.2 C 53.9 44.4 54.9 44 56 44 C 57.1 44 58.1 44.4 58.8 45.2 C 59.6 45.9 60 46.9 60 48 L 60 72 C 60 73.1 59.6 74.1 58.8 74.8 C 58.1 75.6 57.1 76 56 76 C 54.9 76 53.9 75.6 53.2 74.8 C 52.4 74.1 52 73.1 52 72 L 52 48 Z  M 36 16 L 16 16 C 14.9 16 13.9 16.4 13.2 17.2 C 12.4 17.9 12 18.9 12 20 C 12 21.1 12.4 22.1 13.2 22.8 C 13.9 23.6 14.9 24 16 24 L 80 24 C 81.1 24 82.1 23.6 82.8 22.8 C 83.6 22.1 84 21.1 84 20 C 84 18.9 83.6 17.9 82.8 17.2 C 82.1 16.4 81.1 16 80 16 L 60 16 L 60 12 C 60 9.9 59.2 7.8 57.7 6.3 C 56.2 4.8 54.1 4 52 4 L 44 4 C 41.9 4 39.8 4.8 38.3 6.3 C 36.8 7.8 36 9.9 36 12 L 36 16 Z  M 44 16 L 52 16 L 52 12 L 44 12 L 44 16 Z " fill-rule="evenodd" fill="#454545" stroke="none"/><mask id="_mask_7e58bJBYvlM3oPoVmwyuyThDebwuD1F8"><path d=" M 20.6 36 L 20.6 36 L 27.4 83.5 C 27.4 83.8 27.7 84 28 84 L 68 84 C 68.3 84 68.6 83.8 68.6 83.5 L 75.4 36 L 20.6 36 Z  M 75.4 36 M 12.6 36.4 L 19.5 84.6 C 20.1 88.8 23.7 92 28 92 L 68 92 C 72.3 92 75.9 88.8 76.5 84.6 L 83.4 36.4 L 83.5 35.7 C 83.5 35.6 83.5 35.5 83.5 35.4 C 83.5 33.4 82.7 31.5 81.2 30.1 C 79.8 28.8 78 28 76 28 L 20 28 C 18 28 16.2 28.8 14.8 30.1 C 13.3 31.5 12.5 33.4 12.5 35.4 C 12.5 35.5 12.5 35.6 12.5 35.7 L 12.6 36.4 Z  M 36 48 C 36 46.9 36.4 45.9 37.2 45.2 C 37.9 44.4 38.9 44 40 44 C 41.1 44 42.1 44.4 42.8 45.2 C 43.6 45.9 44 46.9 44 48 L 44 72 C 44 73.1 43.6 74.1 42.8 74.8 C 42.1 75.6 41.1 76 40 76 C 38.9 76 37.9 75.6 37.2 74.8 C 36.4 74.1 36 73.1 36 72 L 36 48 Z  M 52 48 C 52 46.9 52.4 45.9 53.2 45.2 C 53.9 44.4 54.9 44 56 44 C 57.1 44 58.1 44.4 58.8 45.2 C 59.6 45.9 60 46.9 60 48 L 60 72 C 60 73.1 59.6 74.1 58.8 74.8 C 58.1 75.6 57.1 76 56 76 C 54.9 76 53.9 75.6 53.2 74.8 C 52.4 74.1 52 73.1 52 72 L 52 48 Z  M 36 16 L 16 16 C 14.9 16 13.9 16.4 13.2 17.2 C 12.4 17.9 12 18.9 12 20 C 12 21.1 12.4 22.1 13.2 22.8 C 13.9 23.6 14.9 24 16 24 L 80 24 C 81.1 24 82.1 23.6 82.8 22.8 C 83.6 22.1 84 21.1 84 20 C 84 18.9 83.6 17.9 82.8 17.2 C 82.1 16.4 81.1 16 80 16 L 60 16 L 60 12 C 60 9.9 59.2 7.8 57.7 6.3 C 56.2 4.8 54.1 4 52 4 L 44 4 C 41.9 4 39.8 4.8 38.3 6.3 C 36.8 7.8 36 9.9 36 12 L 36 16 Z  M 44 16 L 52 16 L 52 12 L 44 12 L 44 16 Z " fill-rule="evenodd" fill="white" stroke="none"/></mask><path d=" M 20.6 36 L 20.6 36 L 27.4 83.5 C 27.4 83.8 27.7 84 28 84 L 68 84 C 68.3 84 68.6 83.8 68.6 83.5 L 75.4 36 L 20.6 36 Z  M 75.4 36 M 12.6 36.4 L 19.5 84.6 C 20.1 88.8 23.7 92 28 92 L 68 92 C 72.3 92 75.9 88.8 76.5 84.6 L 83.4 36.4 L 83.5 35.7 C 83.5 35.6 83.5 35.5 83.5 35.4 C 83.5 33.4 82.7 31.5 81.2 30.1 C 79.8 28.8 78 28 76 28 L 20 28 C 18 28 16.2 28.8 14.8 30.1 C 13.3 31.5 12.5 33.4 12.5 35.4 C 12.5 35.5 12.5 35.6 12.5 35.7 L 12.6 36.4 Z  M 36 48 C 36 46.9 36.4 45.9 37.2 45.2 C 37.9 44.4 38.9 44 40 44 C 41.1 44 42.1 44.4 42.8 45.2 C 43.6 45.9 44 46.9 44 48 L 44 72 C 44 73.1 43.6 74.1 42.8 74.8 C 42.1 75.6 41.1 76 40 76 C 38.9 76 37.9 75.6 37.2 74.8 C 36.4 74.1 36 73.1 36 72 L 36 48 Z  M 52 48 C 52 46.9 52.4 45.9 53.2 45.2 C 53.9 44.4 54.9 44 56 44 C 57.1 44 58.1 44.4 58.8 45.2 C 59.6 45.9 60 46.9 60 48 L 60 72 C 60 73.1 59.6 74.1 58.8 74.8 C 58.1 75.6 57.1 76 56 76 C 54.9 76 53.9 75.6 53.2 74.8 C 52.4 74.1 52 73.1 52 72 L 52 48 Z  M 36 16 L 16 16 C 14.9 16 13.9 16.4 13.2 17.2 C 12.4 17.9 12 18.9 12 20 C 12 21.1 12.4 22.1 13.2 22.8 C 13.9 23.6 14.9 24 16 24 L 80 24 C 81.1 24 82.1 23.6 82.8 22.8 C 83.6 22.1 84 21.1 84 20 C 84 18.9 83.6 17.9 82.8 17.2 C 82.1 16.4 81.1 16 80 16 L 60 16 L 60 12 C 60 9.9 59.2 7.8 57.7 6.3 C 56.2 4.8 54.1 4 52 4 L 44 4 C 41.9 4 39.8 4.8 38.3 6.3 C 36.8 7.8 36 9.9 36 12 L 36 16 Z  M 44 16 L 52 16 L 52 12 L 44 12 L 44 16 Z " fill-rule="evenodd" fill="none" stroke="none" stroke-width="16" mask="url(#_mask_7e58bJBYvlM3oPoVmwyuyThDebwuD1F8)"/></svg>
